X:1
T: The Lasses of Fochabers
C:Alexander Walker
R:Reel
Q: 232
K:G
M:4/4
L:1/8
|:B|GB dB eg dB|GB dB A2 AB|GB dB eg dc|BG AF G2 GB|
GB dB ec dB|ce dB A2 AF|GF ED ED CB,|CA, DB, G,3B|
GB Ac Bd eg|Gd BG A2 AB|GB Ac Bd ef|ge dB G2 GB|
GB Ac Bd eg|cA BG E2 EF|GF ED ED CB,|EA FD G2 G:|
